X:8
%%etbk:tnset id:3,pos:3,rep:3x,ant:
%%etbk:wsite http://www.thesession.org/tunes/display/1423
%%etbk:color #ffffcc
%%etbk:pldat 2016-07-09T13:41,2016-03-30T18:05,2016-03-14T18:08,2015-10-13T18:00,2015-07-17T10:30,2015-03-06T17:03,2015-03-04T17:47,2015-01-20T16:05,2014-12-30T17:25,2014-12-20T14:10,2014-12-14T15:07,2014-12-13T15:55,2014-12-09T17:03,2014-12-08T18:22,2014-12-07T10:42,2014-09-25T17:43,2014-05-14T15:48,2014-05-11T12:36,2014-05-07T17:55,2014-03-12T18:27,2014-02-15T17:19,2014-02-04T17:55,2013-11-27T18:46,2013-11-18T17:57,2013-11-06T16:27,2013-10-05T14:57,2013-09-01T15:23,2013-08-28T15:31,2013-05-02T18:48,2013-05-01T16:57
T: Broken Pledge, The
Z: Piano Box Version by Martin Fleischmann
H: Created 2013-02-19 /  Last Modified 2015-07-17
M: 4/4
L: 1/8
R: Reel
K: Ddor
A|:!5!d!4!c!2!A!1!G !2!A!1!DD!2!A|!4!c!2!A!1!G!3!F !2!E!1!CCE|!1!D!2!E!3!F!4!G !2!A!5!ddc|!2!A!4!c!1!G!4!c !1!A!4!e!5!f!4!e|
!5!dcAG A2dA|cAGF ECCE|DEFG Addc|!2!AA!1!G!2!E E!1!DD:||
A|:!3!d!2!c!1!A!1!G !1!Acde|!5!fAdf !4!e!2!c!1!A!2!B|!3!~c3!2!A !1!GAcd|!5!e2!1!cc !2!e!5!a!4!g!1!e|
!3!dcAG Acde|fAdf ec!1!A!4!G|!3!F2FE !3!F!4!G!2!AB|!4!c!2!A!1!G!2!E E!1!DD:||


